X:1
T:Polyphonic Étude No. 5
T:Polyphonic Étude No. 5
T:Air de Ballet
T:Heinrich Wilhelm Ernst
C:Heinrich Wilhelm Ernst
%%score ( 1 2 )
L:1/8
Q:1/4=110
M:3/4
K:Eb
V:1 treble nm="Violin" snm="Vln."
V:2 treble 
V:1
"^Allegretto con giusto"!p! (df/) z/"_cresc." (fa/) z/ (ag/) z/ | (gc'/) z/ (c'b/) z/!f! b z | %2
!p! (df/) z/"_cresc." (fa/) z/ (ag/) z/ | (gc'/) z/ (c'b/) z/!f! b z | %4
!p! (eb/) z/"_cresc." (be'/) z/ (e'b/) z/ | (=bd'/) z/ (d'c'/) z/ (_bg/) z/ | (gb/) z/ (ba)(ag) | %7
!mf!!>(! (gf) (fe) (ed)!>)! |!p! (df/) z/ (fa/) z/ (ag/) z/ | (gc'/) z/ (c'b/) z/ b z | %10
 (df/) z/ (fa/) z/ (ag/) z/ | (gc'/) z/ (c'b/) z/ b z | (eb/) z/ (be'/) z/ ([ee']b/) z/ | %13
 (=b_d'/) z/"_cresc." (d'c'/) z/ (f'c'/) z/ | (^c'e'/) z/ (e'd'/) z/ (e'd'/) z/ | %15
 (f'e'/) z/ (a'e'/) z/ (a'e'/) z/ |!f! [Dfa']3 (f'/d'/ b/_c'/a/f/ | d/a/f/d/ B/_c/A/F/ D/A/F/D/ | %18
 B,) z [B,Fd] z [DBf] z | [DBa] z z2 !fermata!z2 |!p! (df/) z/ (fa/) z/ (ag/) z/ | %21
 (gc'/) z/ (c'b/) z/ b z | (df/) z/ (fa/) z/ (a_g/) z/ | (_g_c'/) z/ (c'b/) z/ b z || %24
[K:B] ([ca][ec']/) z/ ([ec'][ce']/) z/ ([ce']a/) z/ | ([^^ca][db]/) z/ ([db]f/) z/ [df] z | %26
!<(! (f^^f/) z/ (f!<)!!>(!g/) z/ (ge/)!>)! z/ |!mp! (ed/) z/ (gf/) z/ (c'b/) z/ | %28
 (ac'/) z/ ([ec'][ce']/) z/"_cresc." (e'a/) z/ | (ac'/) z/ (c'b/) z/ (ag/) z/ | %30
 ([df]b/) z/ ([db]d'/) z/ (d'c'/) z/ |!f! (dc'/) z/"_dimin." (c'b/) z/ (b=a/) z/ | %32
!p! (gb/) z/ ([=db][B=d']/) z/ (d'g/) z/ | ([^Bg][c=a]/) z/ ([ca]e/) z/ [ce] z | %34
 (gb/) z/ (b=d'/) z/ (d'c'/) z/ | (c'f'/) z/ (f'e'/) z/ e' z | %36
 ([c^a]c'/) z/ ([ec'][ce']/) z/ (e'a/) z/ | ([^^ca][db]/) z/ ([db]f/) z/ [df] z | %38
 (ac'/) z/ (c'e'/) z/ (e'd'/) z/ | (d'g'/) z/ (g'f'/) z/ [df'] z | (Fd/) z/ (d=c'/) z/ (c'b/) z/ | %41
 (E[Be]/) z/ (e=c'/) z/ (c'b/) z/ ||[K:C]"_cresc." (Bd/) z/ (da/) z/ (ag/) z/ | %43
 (cg/) z/ (gc'/) z/!ff! (c'g/) z/ |!p! (Ac/) z/ (cg/) z/ (gf/) z/ | %45
"_cresc." (_Bf/) z/ (fg/) z/ (gf/) z/ ||[K:Eb] ([_DG][GB]/) z/ ([GB]_f/) z/ (fe/) z/ | %47
 (Ae/) z/ (ea/) z/!ff! (ae/) z/ |!p!"_cresc." (Ae/) z/ (ef/) z/ (fe/) z/ | %49
!f! (Fd/) z/ (dc'/) z/!ff! (c'b/) z/ |!mf! (Ae/) z/ (ef/) z/ (fe/) z/ | %51
 (Fd/) z/ (dc'/) z/!ff! (c'b/) z/ |!mf! (Ge/) z/ (ed'/) z/ (d'c'/) z/ | %53
"_cresc." (Af/) z/ (fe'/) z/ (e'd'/) z/ | (Bg/) z/ (gf'/) z/ (f'e'/) z/ | %55
 (Bg/) z/"_riten." (gf'/) z/ (f'=e'/) z/ | (Ba/) z/ (af'/) z/ (B[g=e']/) z/ | %57
 (Ba/) z/ (af'/) z/ (B[g=e']/) z/ | (Ba/) z/ (af'/) z/ (B[g=e']/) z/ | %59
 (B[af']/) z/"_pesante" (B[_g_g']/) z/ (_d[b=g']/) z/ | %60
!ff!"^a tempo" [F=dba']3 (f'/d'/ b/_c'/a/f/ | d/a/f/d/ B/_c/A/F/ D/A/F/D/ | %62
 B,) z!ff!"^pizz." [B,Fd] z [DBf] z | [DBa] z z2 !fermata!z2 | %64
!p!"^arco" (df/) z/ (fa/) z/ (ag/) z/ |!<(! (gc'/) z/ (c'b/) z/!<)!!p! (!arpeggio!Tb2{=ab)} | %66
 (df/) z/ (fa/) z/ (ag/) z/ |!<(! (gc'/) z/ (c'b/) z/!<)!!p! (!arpeggio!Tb2{=ab)} | %68
 (eb/) z/ (be'/) z/ (e'b/) z/ | (=bd'/) z/ (d'c'/) z/ (c'g/) z/ | (g_b/) z/ (ba/) z/ ([c-a][cg]) | %71
 (gf) ([F-f][Fe]) ([F-e][Fd]) |!p! (df/) z/ (fa/) z/ (ag/) z/ | %73
 (gd'/) z/ (d'c'/) z/ (!arpeggio!Tb2{=ab)} | (df/) z/ (fa/) z/ (ag/) z/ | %75
 (gd'/) z/ (d'c'/) z/ (!arpeggio!Tb2{=ab)} | (eb/) z/ (be'/) z/ (e'b/) z/ | %77
 (=b_d'/) z/ (d'c'/) z/ (Tc'2{=bc')} |"_cresc." (fc'/) z/ ([fc']f'/) z/ (f'c'/) z/ | %79
 (^c'e'/) z/ (e'd'/) z/ (Td'2{c'd')} | (gd'/) z/ (d'g'/) z/ (g'd'/) z/ | %81
 (d'f'/) z/ (f'e'/) z/ (d'c'/) z/ | (=gc'/) z/ (c'b/) z/ (_ba/) z/ | %83
 (ea/) z/"_cresc." (a^f/) z/ (ag/) z/ | (cg/) z/ (g=e/) z/ (gf/) z/ | %85
 (=A[cg]/) z/ (gf/) z/ (d'c'/) z/ | (Gf/) z/ (fe/) z/ (c'b/) z/ | (Fe/) z/ (ed/) z/ (gf/) z/ | %88
!f! (eb/) z/ (be'/) z/ (e'b/) z/ | (=bd'/) z/ (d'c'/) z/ (c'g/) z/ | (gb/) z/ (ba/) z/ (ag/) z/ | %91
 (!>!gf) (!>!fe) (!>!ed) |!p! (eb/) z/ (be'/) z/ (e'b/) z/ | %93
 (=bd'/) z/"_cresc." (d'c'/) z/ (c'g/) z/ | (gb/) z/ (ba/) z/ (ag/) z/ | (!>!gf) (!>!fe) (!>!ed) | %96
!f! (e"_cresc."[eb]) ([eb]c') (c'b) | (A[Ad]) ([Ad]c') (c'b) | (e[eb]) ([eb]c') (c'b) | %99
 (A[Ad]) (dc') (c'b) |!ff!!<(! (eb) ([eb]c')!<)! (c'b) |!<(! (ge') (e'f')!<)! (f'e') | %102
 ([gb][gg'])"_pesante" ([gg'][aa']) ([aa'][gg']) | ([gg'][bb']) ([bb'][c'c'']) ([c'c''][bb']) | %104
!ff!"^a tempo"{/=A} e''3 (c''/=a'/ _g'/e'/c'/=a/ | _g/e/c/=A/ _G/E/C/=A,/ C/E/G/A,/ | %106
 B,) z"_rit." [EB=g] z [A,DBf] z |"^pesante" [G,Gf=b] z [=A,Gfc'] z [=B,Afd'] z | %108
"^a tempo" ([CGee']2 e'') (c''/=a'/ _g'/e'/c'/=a/ | _g/e/c/=A/ A3 z | B,) z [Be=g] z [B,Adf] z | %111
 [EGe] z z2 z2 |!mf! (df/) z/"_poco rit." ([df]c'/) z/ (!arpeggio!c'b/) z/ | %113
 !arpeggio![Gee'] z !fermata!z2 z2 |!p!!pp! (DG/) z/ (GF/) z/ (!arpeggio!cB/) z/ | [G,E] z z2 z2 | %116
!ff!"^pizz.""^a tempo" [G,E] z [EBg] z [EBb] z |"^arco" !fermata![G,E]6 |] %118
V:2
 [B,F] z [DB] z [FB] z | [EB] z [_Ge] z [=Ge] z | [B,F] z [DB] z [FB] z | [EB] z [_Ge] z [=Ge] z | %4
 [EG] z z2 [Ge] z | z2 [Ae] z [=E_d] z | z2 [Fc] z ([Fc-][Gc]) | %7
 ([Gc-][Ac]) [Ac][=A,F] ([A,F-][B,F]) | [B,F] z [DB] z [FB] z | [EB] z [_Ge] z [=Ge] z | %10
 [B,F] z [DB] z [FB] z | [EB] z [_Ge] z [=Ge] z | [EG] z [Ge] z z2 | [Ge] z [Ae] z [=Af] z | %14
 [=Af] z [Bf] z [=Bg] z | [cg] z [ca] z [_ca] z | x6 | x6 | x6 | x6 | [B,F] z [DB] z [FB] z | %21
 [EB] z [_Ge] z [=Ge] z | [B,F] z [DB] z [FB] z | [EB] z [_Ge] z [Ge] z ||[K:B] F z z2 F z | %25
 [B,F] z z2 B z | [Ac] z z2 [Ac] z | B z d z d z | [Fe] z z2 [Fc] z | [^^Fe] z [Gd] z [^E=d] z | %30
 F z z2 [Fe] z | [B,F] z d z d z | [E=d] z z2 [EB] z | [=A,E] z z2 =A z | [EB] z [Ge] z [Be] z | %35
 =A z z2 [Ac] z | F z z2 [Fc] z | [B,F] z z2 B z | [Fc] z [Af] z [cf] z | [Bf] z z2 z2 | %40
 =A, z F z d z | =G,/ z/ z e z [=Ge] z ||[K:C] F z F z B z | E z z2 [Ec] z | _E z E z A z | %45
 D z z2 [D_B] z ||[K:Eb] x4 [GB] z | C z A z [CA] z | _C z [B,_G] z [=A,G] z | B, z F z d z | %50
 _C z [B,_G] z [=A,G] z | B, z F z d z | B, z G z e z | B, z A z f z | B, z B z g z | %55
 B, z B z g z | D z B z _D z | =D z B z _D z | =D z B z _D z | =D z E z =E z | x6 | x6 | x6 | x6 | %64
 [B,F] z [DB] z [FB] z | [EB] z [_Ge] z [=Ge] z | [B,F] z [DB] z [FB] z | [EB] z [_Ge] z [=Ge] z | %68
 [EG] z e z [Ge] z | z2 [Ae] z [=E_d] z | z2 [Fc] z (FG) | ([Gc-][Ac]) (A,=A,) (A,B,) | %72
 [B,F] z [DB] z [FB] z | [EB] z [_Ge] z [=Ge] z | [B,F] z [DB] z [FB] z | [EB] z [_Ge] z [=Ge] z | %76
 [EG] z e z [Ge] z | z2 [Ae] z z2 | [F=A] z z2 [Af] z | z2 [Bf] z z2 | [G=B] z z2 [Bg] z | %81
 z2 [cg] z [=A_g] z | B z z2 [=Bf] z | c z z2 [ce] z | A z z2 [Ac] z | =A, z c z e z | %86
 B, z G z [Ge] z | B, z F z [B,A] z | [EG] z e z z2 | [Ge] z [Ae] z [G=e] z | %90
 [=E_d] z [Fc] z ([Fc-][Gc]) | [Ac]2 [B,G]2 [B,F]2 | [EG] z e z z2 | [Ge] z [Ae] z [G=e] z | %94
 [=E_d] z [Fc] z ([Fc-][Gc]) | [Ac]2 [B,G]2 [B,F]2 | [EG] z z2 [Ge] z | B, z z2 d z | %98
 [EG] z z2 [Ge] z | B, z A z [Fd] z | [EG] z z2 [Ge] z | [EB] z g z [Bg] z | x6 | x6 | x6 | x6 | %106
 x6 | x6 | x2 =A A3 | =A2 _G/E/C/=A,/ C/E/G/A,/ | x6 | x6 | [B,F] z z2 [Ad]2 | x6 | %114
 B, z =A, z [_A,D] z | x6 | x6 | x6 |] %118

